X:1
T:Title
%%score { ( 1 3 ) | ( 2 4 ) }
L:1/8
Q:1/4=81
M:6/8
K:F
V:1 treble nm="Grand Piano"
V:3 treble 
V:2 bass 
V:4 bass 
V:1
 AAA [Ac]>[GB][FA] | [EB]EG F3 | [EG][EG][EG] [GB]>[FA][EG] | AFA [EG]3 | AAA [Ac]>[GB][FA] | %5
w: W.~J.~Kirkpatrick * * * * *|||||
 [FB][Fc][Fd] c2 A | GGG GA=B | [Ec]6 | [EB][EB][EB] [Ed]>[Ec][EB] | AAB c3 | %10
w: |||||
 [EB][EB][EB] [Ed]>[Ec][CEB] | [CFA][CGB][CFA] [CEG]3 | [CFA][CFA][CFA] [CAc]>[CGB][CFA] | %13
w: |||
 [B,FB][Fc][Fd] [Fc]2 [FA] | [EG][EG][FA] [EB]EG | F6 | .[Ac]6 | .[Ac]6 | .[GB]6 | [FA]6 | .[Ac]6 | %21
w: ||||||||
 .[Fd]6 | .[G=B]6 | [Ec]6 | .[Ac]6 | .[Ac]6 | .[Fd]6 | [Ge]6 | .[Af]6 | .[FG]6 | %30
w: |||||||||
 [Fc][Fc][Fc] [Ec][G,CE][B,CG] | [F,F]-[F,-CF-][F,-DF-] [F,CF]3 |] %32
w: ||
V:2
 [F,CF][F,CF][F,CF] [F,C]>[F,C][F,C] | [C,C][C,G,C][C,B,C] [F,A,C]3 | %2
 [C,C][C,C][C,C] [C,C]>[C,C][C,C] | [F,CF][F,A,C][F,CF] [C,C]3 | %4
 [F,CF][F,CF][F,CF] [F,C]>[F,C][F,C] | [D,B,][C,A,][B,,B,][K:treble] [F,A,F]2 [F,CF] | %6
 [G,CE][G,CE][G,CE] [G,=B,F][G,CF][G,DF] | [C,C]6 | [C,G,][C,G,][C,G,] [C,G,]>[C,G,][C,C] | %9
 [F,CF][F,CF][F,CF] [F,A,F]3 | [C,G,][C,G,][C,G,] [C,G,]>[C,G,]C, | F,F,F, C,3 | F,F,F, F,>F,F, | %13
 D,[C,A,][B,,B,] [F,A,]2 [F,C] | [C,C][C,C][C,C] [C,C][C,C][C,B,C] | [F,A,C]6 | %16
 [F,F]F,F, F,[K:treble]GF | F,F,F, F,[K:treble]GF | C,C,C, C,C,C, | F,F,F, .F,3 | %20
 F,F,F, F,F,[F,A,] | [D,A,]D,D, D,[K:treble]GA | G,G,G, G,[G,A,^F][G,=B,=F] | [C,C]C,C, .C,3 | %24
 F,F,F, F,F,F | F,F,F, F,F,F | [B,,B,]B,,B,, B,,B,,B,, | [C,C]C,C, C,2 [C,C] | [F,C]F,F, F,F,F, | %29
 B,,B,,B,, B,,B,,[B,,B,] | [C,A,][C,A,][C,A,] [C,G,]C,C, | z A,B, .A,3 |] %32
V:3
 x6 | x6 | x6 | x6 | x6 | x6 | x6 | x6 | x6 | x6 | x6 | x6 | x6 | x6 | x6 | x6 | z FF CBA | %17
 FFF CBA | CCC C[CFA][CEG] | CCC .C3 | FFF C[D_A=B][=Ac] | z A,A, Def | DDD Dcd | z G,G, .G,3 | %24
 FEF C[CGB]A | FFF C[CGB]A | z B,B, D[DGe][D_Af] | z CC C2 [Be] | z CC C[FAc][CFA] | %29
 DDD D[DFB][Fd] | x6 | .[A,C]3 z3 |] %32
V:4
 x6 | x6 | x6 | x6 | x6 | x3[K:treble] x3 | x6 | x6 | x6 | x6 | x6 | x6 | x6 | x6 | x6 | x6 | %16
 x4[K:treble] x2 | x4[K:treble] x2 | x6 | x6 | x6 | x4[K:treble] x2 | x6 | x6 | x6 | x6 | x6 | x6 | %28
 x6 | x6 | x6 | F,,6 |] %32

